packages/crayons-core/src/components/icon/icon-assets/icons/link-broken.svg

<?xml version="1.0" encoding="UTF-8"?>
<svg width="15px" height="15px" viewBox="0 0 15 15" version="1.1" xmlns="http://www.w3.org/2000/svg" xmlns:xlink="http://www.w3.org/1999/xlink">
    <!-- Generator: Sketch 52.6 (67491) - http://www.bohemiancoding.com/sketch -->
    <title>icon/link-broken</title>
    <desc>Created with Sketch.</desc>
    <g id="Icons-✅" stroke="none" stroke-width="1" fill="none" fill-rule="evenodd">
        <g id="Icons" transform="translate(-572.000000, -1729.000000)" fill="currentColor">
            <g id="icon/link-broken" transform="translate(573.000000, 1729.000000)">
                <g id="link-broken" transform="translate(-1.000000, 0.000000)">
                    <path d="M9.51,4.5 C9.78558469,4.23199214 10.2244153,4.23199214 10.5,4.5 C10.6369644,4.63025306 10.7145003,4.81098915 10.7145003,5 C10.7145003,5.18901085 10.6369644,5.36974694 10.5,5.5 L6.5,9.5 C6.36832072,9.63433974 6.18811326,9.71002687 6,9.71 C5.81465043,9.71079113 5.6372544,9.63476426 5.51,9.5 C5.37303562,9.36974694 5.29549974,9.18901085 5.29549974,9 C5.29549974,8.81098915 5.37303562,8.63025306 5.51,8.5 L9.51,4.5 Z M14.39,9.88 C14.5524503,9.97219836 14.6713137,10.1254994 14.7201436,10.3057944 C14.7689735,10.4860895 14.7437193,10.6784223 14.65,10.84 C14.5213512,11.0547912 14.2903571,11.1873289 14.04,11.19 C13.9161135,11.1912463 13.7945283,11.1565076 13.69,11.09 L12.36,10.33 C12.142068,10.204957 12.0074001,9.97314724 12.0067245,9.72189111 C12.0060489,9.47063497 12.1394681,9.23810429 12.3567245,9.11189111 C12.5739809,8.98567793 12.842068,8.98495704 13.06,9.11 L14.39,9.88 Z M1.61,4.12 C1.37880181,4.0026822 1.23138046,3.76718734 1.22686269,3.50796608 C1.22234492,3.24874483 1.36147072,3.00825595 1.58844045,2.88295309 C1.81541019,2.75765023 2.09304769,2.76805718 2.31,2.91 L3.64,3.65 C3.81147966,3.7440262 3.9365825,3.90462013 3.98579362,4.09389366 C4.03500473,4.28316719 4.00396592,4.48435794 3.9,4.65 C3.77428377,4.86775534 3.54143611,5.00135646 3.29,5 C3.16587153,4.993726 3.0454003,4.95586362 2.94,4.89 L1.61,4.12 Z M11.33,11.36 L12.09,12.65 C12.1977748,12.8135838 12.232072,13.0148435 12.1845603,13.2048901 C12.1370487,13.3949366 12.012076,13.5563789 11.84,13.65 C11.7327204,13.7088602 11.6123658,13.7398085 11.49,13.74 C11.2385639,13.7413565 11.0057162,13.6077553 10.88,13.39 L10.11,12.06 C9.98495704,11.842068 9.98567793,11.5739809 10.1118911,11.3567245 C10.2381043,11.1394681 10.470635,11.0060489 10.7218911,11.0067245 C10.9731472,11.0074001 11.204957,11.142068 11.33,11.36 Z M4.67,2.64 L3.91,1.31 C3.76805718,1.09304769 3.75765023,0.81541019 3.88295309,0.588440453 C4.00825595,0.361470716 4.24874483,0.222344921 4.50796608,0.226862691 C4.76718734,0.23138046 5.0026822,0.378801813 5.12,0.61 L5.89,1.91 C5.9970101,2.07484423 6.02979375,2.27708033 5.98033967,2.46728831 C5.9308856,2.6574963 5.80374974,2.81815332 5.63,2.91 C5.52272038,2.96886016 5.40236584,2.99980847 5.28,3 C5.02647772,2.99931775 4.79313892,2.86160961 4.67,2.64 Z M8.76,10.34 L8.75,10.33 C9.02614238,10.0538576 9.47385761,10.0538577 9.74999997,10.33 C10.0261423,10.6061424 10.0261424,11.0538576 9.75,11.33 L8.34,12.74 C7.26111293,13.8610842 5.66077187,14.3119013 4.15534354,13.9188203 C2.64991521,13.5257394 1.47426059,12.3500848 1.08117966,10.8446565 C0.688098726,9.33922813 1.13891581,7.73888707 2.26,6.66 L3.66,5.24 C3.83863279,5.06136721 4.09899577,4.99160316 4.3430127,5.0569873 C4.58702964,5.12237144 4.77762856,5.31297036 4.8430127,5.5569873 C4.90839684,5.80100423 4.83863279,6.06136721 4.66,6.24 L3.25,7.65 C2.1182922,8.78238084 2.1182922,10.6176192 3.25,11.75 C4.40346916,12.8295739 6.19653084,12.8295739 7.35,11.75 L8.76,10.34 Z M7.24,3.66 L7.25,3.67 C7.07136721,3.84863279 6.81100423,3.91839684 6.5669873,3.8530127 C6.32297036,3.78762856 6.13237144,3.59702964 6.0669873,3.3530127 C6.00160316,3.10899577 6.07136721,2.84863279 6.25,2.67 L7.66,1.26 C9.34170706,-0.418945639 12.0660544,-0.416707063 13.745,1.265 C15.4239456,2.94670706 15.4217071,5.67105436 13.74,7.35 L12.33,8.76 C12.2017181,8.89210239 12.0240816,8.96460708 11.84,8.96 C11.6531238,8.963808 11.472698,8.89163767 11.34,8.76 C11.0654444,8.48320224 11.0654444,8.03679776 11.34,7.76 L12.75,6.35 C13.8817078,5.21761916 13.8817078,3.38238084 12.75,2.25 C11.5965308,1.17042615 9.80346916,1.17042615 8.65,2.25 L7.24,3.66 Z" id="Combined-Shape"></path>
                </g>
            </g>
        </g>
    </g>
</svg>

<svg viewBox="0 0 15 15"><path d="M9.51 4.5a.71.71 0 0 1 1.205.5.69.69 0 0 1-.215.5l-4 4a.7.7 0 0 1-.5.21.67.67 0 0 1-.49-.21.69.69 0 0 1 0-1l4-4zm4.88 5.38a.7.7 0 1 1-.7 1.21l-1.33-.76a.703.703 0 0 1 .7-1.22l1.33.77zM1.61 4.12a.7.7 0 1 1 .7-1.21l1.33.74a.71.71 0 0 1 .26 1 .7.7 0 0 1-.61.35.73.73 0 0 1-.35-.11l-1.33-.77zm9.72 7.24l.76 1.29a.7.7 0 0 1-.25 1 .73.73 0 0 1-.35.09.7.7 0 0 1-.61-.35l-.77-1.33a.703.703 0 0 1 1.22-.7zM4.67 2.64l-.76-1.33a.7.7 0 1 1 1.21-.7l.77 1.3a.7.7 0 0 1-.26 1 .7.7 0 0 1-.96-.27zm4.09 7.7l-.01-.01a.707.707 0 0 1 1 1l-1.41 1.41a4.3 4.3 0 1 1-6.08-6.08l1.4-1.42a.707.707 0 0 1 1 1L3.25 7.65a2.9 2.9 0 0 0 0 4.1 3 3 0 0 0 4.1 0l1.41-1.41zM7.24 3.66l.01.01a.707.707 0 0 1-1-1l1.41-1.41a4.303 4.303 0 0 1 6.08 6.09l-1.41 1.41a.66.66 0 0 1-.49.2.69.69 0 0 1-.5-.2.71.71 0 0 1 0-1l1.41-1.41a2.9 2.9 0 0 0 0-4.1 3 3 0 0 0-4.1 0L7.24 3.66z" fill="currentColor" fill-rule="evenodd"/></svg>
